icon/lg/raphael.svg

<?xml version="1.0" encoding="UTF-8" standalone="no" ?>
<svg viewBox="0 0 256 256" version="1.1" xmlns="http://www.w3.org/2000/svg" xmlns:xlink="http://www.w3.org/1999/xlink" preserveAspectRatio="xMidYMid" height="1em" width="1em">
  <g>
    <path d="M127.997302,247.451826 C113.933828,247.451826 100.709523,241.977001 90.7636364,232.025718 L23.9810277,165.243109 C14.0243479,155.299921 8.53872991,142.072917 8.53872991,128.001349 C8.53872991,113.927083 14.0243479,100.697381 23.9837259,90.7487956 L90.7663346,23.9688852 C100.712222,14.0203003 113.931131,8.54817375 127.997302,8.54817375 C142.060775,8.54817375 155.28508,14.0203003 165.233665,23.9661869 L232.013575,90.7541922 C241.970255,100.691984 247.46127,113.921686 247.46127,127.99865 C247.46127,142.075615 241.972954,155.302619 232.010878,165.248506 L165.230967,232.025718 C155.28508,241.977001 142.060775,247.451826 127.997302,247.451826 L127.997302,247.451826 L127.997302,247.451826 Z" fill="#F89938"/>
    <path d="M82.239747,58.3084267 C82.239747,33.0362686 102.727842,12.5481737 128,12.5481737 C153.274857,12.5481737 173.760253,33.0362686 173.760253,58.3084267 C173.760253,83.5832831 153.274857,104.068679 128,104.068679 C102.725143,104.071378 82.239747,83.5832831 82.239747,58.3084267" fill="#3399FF"/>
    <path d="M246.712571,159.026898 C252.750754,149.89903 256,139.206076 256,128.009477 C256,112.924532 250.118864,98.7493945 239.450506,88.1024719 L167.893977,16.5363063 L167.8669,16.5633838 C157.656143,6.3361645 143.554413,0 127.995938,0 C112.437464,0 98.3384421,6.33887226 88.1303931,16.5660916 L88.1060237,16.539014 L16.549495,88.0943486 C5.87842828,98.7548099 0,112.929947 0,128.009477 C0,143.086299 5.87572057,157.261437 16.5440796,167.913775 L81.0659899,232.43705 C83.6518484,235.339771 86.3703846,238.055657 89.2351368,240.552215 C99.754572,250.519489 113.450146,256 127.995938,256 C143.064318,256 157.236449,250.132278 167.891269,239.471817 L237.506373,169.857948 C237.682373,169.684652 237.858375,169.505939 238.034375,169.329934 L239.44509,167.921898 C242.133841,165.238505 244.516622,162.32766 246.579893,159.238104 C246.628632,159.170409 246.680079,159.105423 246.731525,159.037729 L246.712571,159.026898 L246.712571,159.026898 Z M235.120885,128.009477 C235.120885,135.027998 233.08469,141.727002 229.315564,147.462043 C227.054631,150.548893 224.696219,153.245824 222.264699,155.577208 L222.091407,155.750505 C210.645936,166.638419 197.713936,169.72256 186.739606,169.72256 C180.701423,169.72256 175.250812,168.785674 170.967222,167.705277 C145.885748,161.369112 118.621862,139.785536 106.144756,108.307796 C112.867989,111.14824 120.251902,112.718741 127.995938,112.718741 C157.095648,112.718741 181.110287,90.5502893 184.050855,62.2189691 L224.690804,102.85707 C231.416744,109.580445 235.120885,118.510646 235.120885,128.009477 L235.120885,128.009477 L235.120885,128.009477 Z M127.998646,20.8768497 C147.567233,20.8768497 163.480417,36.7957861 163.480417,56.3593708 C163.480417,75.9256635 147.564525,91.8445998 127.998646,91.8445998 C108.435475,91.8445998 92.5195834,75.9256635 92.5195834,56.3593708 C92.5195834,36.7957861 108.435475,20.8768497 127.998646,20.8768497 L127.998646,20.8768497 L127.998646,20.8768497 Z M31.3037813,153.156468 C24.5805489,146.438509 20.8764081,137.508309 20.8764081,128.012185 C20.8764081,118.513354 24.5778413,109.583152 31.3010736,102.867901 L58.7951135,75.3705721 C51.6196944,99.8000064 48.5383257,125.507505 50.190026,150.150852 C50.7830135,159.007943 52.0068963,167.504903 53.7669047,175.614652 L31.3037813,153.156468 L31.3037813,153.156468 Z M78.3068381,82.9171065 C84.345021,130.164857 121.743847,176.800652 165.855075,187.94851 C173.041324,189.762711 180.086774,190.656273 186.902068,190.656273 C186.999546,190.656273 187.09973,190.64815 187.197208,190.64815 L153.134275,224.714511 C146.416458,231.427054 137.489154,235.125858 127.995938,235.125858 C121.38643,235.125858 115.072061,233.295411 109.570004,229.943201 L109.580834,229.924246 C107.41467,228.489132 105.351399,226.867182 103.344989,225.150461 C103.187942,224.996119 103.020065,224.868853 102.865725,224.714511 L95.9827385,217.831379 C81.8295628,201.582095 72.9293353,177.404482 71.0149877,148.756354 C69.5663653,127.078007 72.1684701,104.473604 78.3068381,82.9171065 L78.3068381,82.9171065 L78.3068381,82.9171065 Z" fill="#333333"/>
  </g>
</svg>

<svg width="256" height="256" xmlns="http://www.w3.org/2000/svg" preserveAspectRatio="xMidYMid"><path d="M127.997 247.452c-14.063 0-27.287-5.475-37.233-15.426L23.98 165.243c-9.957-9.943-15.442-23.17-15.442-37.242 0-14.074 5.485-27.304 15.445-37.252l66.782-66.78c9.946-9.949 23.165-15.42 37.231-15.42 14.064 0 27.288 5.471 37.237 15.417l66.78 66.788c9.956 9.938 15.447 23.168 15.447 37.245 0 14.077-5.488 27.304-15.45 37.25l-66.78 66.777c-9.946 9.951-23.17 15.426-37.234 15.426Z" fill="#F89938"/><path d="M82.24 58.308c0-25.272 20.488-45.76 45.76-45.76 25.275 0 45.76 20.488 45.76 45.76 0 25.275-20.485 45.76-45.76 45.76-25.275.003-45.76-20.485-45.76-45.76" fill="#39F"/><path d="M246.713 159.027c6.038-9.128 9.287-19.82 9.287-31.018 0-15.084-5.881-29.26-16.55-39.907l-71.556-71.566-.027.027C157.657 6.336 143.554 0 127.996 0 112.437 0 98.338 6.339 88.13 16.566l-.024-.027-71.557 71.555C5.88 98.754 0 112.93 0 128.01c0 15.077 5.876 29.252 16.544 39.905l64.522 64.523a91.271 91.271 0 0 0 8.17 8.115C99.754 250.52 113.45 256 127.995 256c15.068 0 29.24-5.868 39.895-16.528l69.615-69.614c.176-.173.352-.352.528-.528l1.411-1.408a56.95 56.95 0 0 0 7.135-8.684c.049-.068.1-.133.152-.2l-.02-.011Zm-11.592-31.018a35.27 35.27 0 0 1-5.805 19.453c-2.261 3.087-4.62 5.784-7.051 8.115l-.174.174c-11.445 10.887-24.377 13.972-35.351 13.972-6.039 0-11.49-.937-15.773-2.018-25.081-6.336-52.345-27.92-64.822-59.397a56.016 56.016 0 0 0 21.85 4.41c29.1 0 53.115-22.168 56.056-50.499l40.64 40.638c6.726 6.723 10.43 15.654 10.43 25.152ZM127.999 20.877c19.568 0 35.481 15.919 35.481 35.482 0 19.567-15.915 35.486-35.481 35.486-19.564 0-35.48-15.92-35.48-35.486 0-19.563 15.916-35.482 35.48-35.482Zm-96.695 132.28c-6.723-6.718-10.428-15.649-10.428-25.145 0-9.499 3.702-18.429 10.425-25.144L58.795 75.37C51.62 99.8 48.538 125.508 50.19 150.15a175.158 175.158 0 0 0 3.577 25.464l-22.463-22.459Zm47.003-70.24c6.038 47.248 43.437 93.884 87.548 105.032 7.186 1.814 14.232 2.707 21.047 2.707.098 0 .198-.008.295-.008l-34.063 34.067c-6.718 6.712-15.645 10.41-25.138 10.41-6.61 0-12.924-1.83-18.426-5.182l.01-.019c-2.165-1.435-4.229-3.057-6.235-4.774-.157-.154-.325-.281-.48-.435l-6.882-6.884c-14.153-16.249-23.054-40.427-24.968-69.075-1.449-21.678 1.153-44.282 7.292-65.839Z" fill="#333"/></svg>
